X: 219
T: Yengyeng guohe
L: 1/16
M: 3/4
K: F
c2 d c B2 c2- [I:setbarnb 1]| 
c2 d f d2 d cG4 | 
[M:2/4]c2 d c B2 c2- | 
[M:3/4]c2 d f d2 d cG4 | 
[M:2/4]c2 c c f2 f d | 
[M:3/4]c c c fc8 | 
[M:2/4]G A G F e z F z | 
F Gc4B A | 
A GC6 |]

@@@ Tune index: 9093
